X:1
T:Panorama
T:                                                    Panorama                                                     
T:Hunter x Hunter - Senritsu Theme
T:Original: Nash Music Library Arreglo: Shima Piano 
C:Compositor: Nash Music Library
%%score { ( 1 3 ) | 2 }
L:1/8
Q:1/4=114
M:3/4
K:F
V:1 treble nm="Piano" snm="Pno."
V:3 treble 
V:2 bass 
V:1
"^Moderato" (3adB (3gdB (3bdB | (3adB (3gdB (3f^cG | (3g=cA (3fcA (3acA | (3gdG (3dGD (3edG | %4
 (3fdB (3gdB (3fdB | (3eGE (3cGE (3eGE |[M:4/4] [Ad]2 (3DAg (3^fdA (3G^FD | z8 | z2 A2 g2 f2 | %9
 e8- | e4 z A gf | e8- | e4 z A gf | [DFAd]4- [DFAd]f3/2e3/2 | [CE=B]4 c4 | e4- egfe | d4{ed} ^c4 | %17
 e8- | e4 z A gf- | f e3- e4- | e4 z A gf | [DFAd]4- [DFAd]f3/2e3/2 | [CE=B]4 c4 | e4- egfe | %24
 d4{ed} ^c4 | [FBe]3 [Bf]- [Bf]dag | [cec']3 f- f2 e2 | d4- dagf | [FAe]4 [=B,D]A, [B,DF]2 | %29
 [FBe]3 [Bf]- [Bf]dag | [cec']3 f- f2 e2 | d4- dagf | d4{ed} ^c4 | e6 a2- | a4- a(3g/f/e/ d2- | %35
 d6 ae' | e'3/2d'3/2c' =b3/2c'3/2b | [Adfa]4- [Adfa]^ga=b | d'>c' c'e- e3 f/=g/ | %39
 (3z2 e2 c2- cAce | d3 ^c (3c2 e2 a2 | [FBe]3 [Bf]- [Bf]dag | [cec']3 f- f2 e2 | %43
 [DFBd]4- [DFBd]agf | e4 [=B,D]A, [B,DF]2 | [F_Be]3 [Bf]- [Bf]dag | [cec']3 d- d2 e2 | f4- f=Bfd | %48
 d4 ^c4 | e8{fe} | d3 a e'2 d'2- | d'4- d'2 [c'd'e'g']>a'- | a'8 | z8 |] %54
V:2
 G,,2 [F,B,D]4 | E,,2 [G,B,D]2 [A,,A,^CDF]2 | D,,2 [F,A,=C]4 | G,,2 [F,A,]4 | B,,2 D,4 | C,2 G,4 | %6
[M:4/4] [D,,D,]8 | A,,E,G,B, !fermata!^C4 | z8 | D,F,A,[A,CE]- [A,CE]CB,F, | %10
 G,,D,F,[=A,B,D]- [A,B,D]4 | D,F,A,[A,CE]- [A,CE]CA,F, | G,,D,F,[=A,B,D]- [A,B,D]4 | %13
 =B,,F,A,D E,^G,=B,D | A,,E,A,C E4 | D,F,A,[A,CE]- [A,CE]F,A,C | [E,G,B,D]G,B,D [A,,^C]G, [^CE]2 | %17
 D,F,A,[=A,CE]- [A,CE]CA,F, | G,,F,A,[=B,D]- [B,D]4 | D,F,A,[A,CE]- [A,CE]CA,F, | %20
 G,,F,A,[=B,D]- [B,D]4 | =B,,F,A,D E,^G,=B,D | A,,E,A,E- ECA,E, | D,F,A,[A,CE]- [A,CE]CA,F, | %24
 [E,G,B,D]G,B,D [A,,^C]G, [^CE]2 | B,,G,A,[B,DF]- [B,DF]A,B,D | A,,G,C[CE]- [CE]CG,C | %27
 G,,D,F,B,- B,DB,F, | D,F,A,C G,,4 | B,,F,A,[B,DF]- [B,DF]A,B,D | A,,F,A,[A,C]- [A,C]F, [A,C]2 | %31
 G,,D,F,B,- B,DB,F, | [E,=G,_B,D]G,B,D [A,,^C]G, [^CE]2 | D,F,A,[EA]- [EA]=CA,F, | %34
 G,,F,A,[=B,D]- [B,D]F, [B,D]2 | D,F,A,[A,CE]- [A,CE]CA,F, | G,,F,A,[=B,D]- [B,D]F,A,B, | %37
 =B,,F,A,D E,^G,=B,D | [A,,E,=G,A,]3 [A,CE]- [A,CE]A,CA, | [D,A,C]F,A,[A,CE]- [A,CE]F,A,C | %40
 [E,G,B,D]G,B,D A,,G, [^CE]2 | B,,F,A,[B,DF]- [B,DF]A,B,D | A,,G,C[CE]- [CE]G, [CEG]2 | %43
 G,,D,F,[B,D]- [B,D]FED | [D,A,CE]A,A,C G,,4 | B,,F,A,[B,DF]- [B,DF]A,B,D | %46
 A,,F,C[CF]- [CF]F,[F,C]A, | ^G,,2 ^G,[=B,DF]- [B,DF]G,B,D | [E,=G,_B,D]G,B,D [A,,^C]G, [^CE]2 | %49
 D,F,A,E- E=CA,F, | G,,F,A,[=B,D]- [B,D]F,A,B, | D,F,A,[A,CE]- [A,CE]CA,F, | %52
 G,,F,A,[=B,D]- [B,D]A,DE | (6:4:6D,,F,A, CDE- !fermata!E4 |] %54
V:3
 x6 | x6 | x6 | x6 | x6 | x6 |[M:4/4] x8 | x8 | x8 | x8 | x8 | x8 | x8 | x8 | x8 | [DE]3 x x4 | %16
 x8 | x8 | x8 | x8 | x8 | x8 | x8 | x8 | x8 | x8 | x8 | [DFB]3 [DFB]- [DFB] z z2 | x8 | x8 | x8 | %31
 [DFB]3 [DFB]- [DFB] z z2 | x8 | x8 | x8 | x8 | x8 | x8 | x8 | x8 | x8 | x8 | x8 | x8 | x8 | x8 | %46
 x8 | x8 | x8 | x8 | x8 | x8 | x8 | x8 |] %54

